X: 37568
T: Smash The Windows
R: jig
M: 6/8
K: Dmajor
|:DED F2A|d2f ecA|G2B F2A|E2F GFE|
DED F2A|d2f ecA|Bgf edc|1 d3 d2z:|2 d3 d2f||
|:a2f d2f|A2a agf|g2e =c2e|A2g gfe|
[1 a2f d2f|A2a agf|egf edc|d3 d2f:|
[2 fed gfe|agf bag|egf edc|d3 d2z||

